X:17839
T:Triumph,The. JMT.059
M:C
L:1/8
Q:190
S:J.Moore,Tyneside,1841.(43b)
R:Rant
O:England
A:Northumbria
Z:vmp.Chris Partington
K:G
ge|d-BBG c-AAF|G-gfg e-fge|d-BBG c-AAF|G2B2G2:|!
|:B2|A2d2B2d2|A2d2B2d2|A2d2B2d2|d-cBAG2:|!
|:B2|B2d2d-cc2|A3c c-BB2|G-ABc e-fge|d-cBAG2:|]
